src/assets/filled/Wanchain.svg

<svg width="24" height="24" viewBox="0 0 24 24"  xmlns="http://www.w3.org/2000/svg">
<path d="M11.7499 9.42999L8.49992 15L7.86991 16.09L5.39991 20.31C5.21991 20.63 4.75992 20.64 4.55992 20.33L1.17991 15.28C1.06991 15.11 1.06991 14.89 1.17991 14.72L4.84993 9.22C4.93993 9.08 5.09991 9 5.26991 9H11.4999L11.7499 9.42999Z" />
<path d="M22.8401 14.73L16.1401 3.25C16.0601 3.09 15.8901 3 15.7101 3H8.87012C8.48012 3 8.24012 3.42 8.44012 3.75L11.5001 9L11.7501 9.42999L14.5601 14.25C14.7601 14.58 14.5201 15 14.1301 15H8.50012L7.87012 16.09C8.05012 15.77 8.51011 15.76 8.71011 16.07L11.8501 20.78C11.9401 20.92 12.1001 21 12.2701 21H18.7301C18.9001 21 19.0601 20.92 19.1501 20.78L22.8301 15.26C22.9301 15.1 22.9401 14.9 22.8401 14.73Z" />
</svg>

<?xml version="1.0" encoding="UTF-8"?>
<svg width="24" height="24" viewBox="0 0 24 24" xmlns="http://www.w3.org/2000/svg">
 <path d="m11.75 9.43-3.25 5.57-0.63001 1.09-2.47 4.22c-0.18 0.32-0.63999 0.33-0.83999 0.02l-3.38-5.05c-0.11-0.17-0.11-0.39 0-0.56l3.67-5.5c0.09-0.14 0.24998-0.22 0.41998-0.22h6.23l0.25 0.42999z"/>
 <path d="m22.84 14.73-6.7-11.48c-0.08-0.16-0.25-0.25-0.43-0.25h-6.84c-0.39 0-0.63 0.42-0.43 0.75l3.06 5.25 0.25 0.42999 2.81 4.82c0.2 0.33-0.04 0.75-0.43 0.75h-5.63l-0.63 1.09c0.18-0.32 0.63999-0.33 0.83999-0.02l3.14 4.71c0.09 0.14 0.25 0.22 0.42 0.22h6.46c0.17 0 0.33-0.08 0.42-0.22l3.68-5.52c0.1-0.16 0.11-0.36 0.01-0.53z"/>
</svg>
